X: 178
T: A Fhleasgaich Is Cumaire
R: waltz
M: 3/4
K: Cmajor
e2 e2 e2|e2 e2 e2|e2 g2 e2|e2 d2 c2|A2 A2 A2|A2 A2 A2|c2 d2 e2|e2 d2 c2:|
A2 c2 A2|G4 E2|E2 F2 G2|G4 E2|G2 A2 E2|G4 A2|E6-|E6||

